icons/1_Primary/XenForo.svg

<svg xmlns="http://www.w3.org/2000/svg" width="1024" height="1024" fill="none">
   <g clip-path="url(#a)">
      <path fill="#728DBE" d="M512 1024c282.77 0 512-229.23 512-512S794.77 0 512 0 0 229.23 0 512s229.23 512 512 512Z"/>
      <path fill="#fff" d="m235 511.47 35.9 52.33h-17.26l-26.17-40-26.27 40h-17.28l35.9-51.71-32.22-47.17H205l22.43 36m4.2-6.52 18.27-29.5h17.27l-27.88 40.3m49.87.56c0-2.22 0-4.26.18-6.22v-.72c.56-8.76 2.22-14.71 5-17.73 3.48-3.76 11.083-5.64 22.81-5.64 11.727 0 19.31 1.606 22.75 4.82 3.26 3 5 9.19 5.22 18.55h14.57c-.893-13.007-3.607-21.864-8.14-26.57-5.667-5.867-17.593-8.794-35.78-8.78-16.667 0-27.873 3.376-33.62 10.13-5.747 6.753-8.58 19.993-8.5 39.72 0 21.333 2.847 35.333 8.54 42 5.693 6.666 17.633 10 35.82 10 15.647 0 26.593-2.054 32.84-6.16 6.247-4.107 9.37-11.297 9.37-21.57l-.1-3.6h-14.79v3.1c0 6.753-1.74 11.15-5.22 13.19-3.48 2.04-11.05 3.02-22.71 2.94-12.26 0-20.063-2.134-23.41-6.4-3.347-4.267-5.013-14.2-5-29.8h71.16v-11.29h-71l.01.03Zm132.45-30.31c9.23 0 15.47 1.48 18.71 4.4 3.24 2.92 4.86 8.64 4.86 17.13v1.84h14.57c0-13.71-2.56-23-7.48-27.92-4.92-4.92-14.57-7.44-28.7-7.44-17.527 0-28.493 5.07-32.9 15.21l-.42-.32.42-13.45h-14v33.92h14.83c1.77-15.61 11.8-23.35 30.11-23.35v-.02Zm-45 30.32h14.49v58h-14.5l.01-58Zm68.58 0h14.49v58h-14.5l.01-58Zm50.95-20.37v-49.33h70.64v-13.43H480.2v76.2h82.49a86.935 86.935 0 0 1 2.12-13.43l-68.67-.01Zm-15.95 20.37h15.93v58h-15.94l.01-58Zm165.81 8.6c0 17.566-1.533 28.44-4.6 32.62-3.067 4.18-11.067 6.266-24 6.26-12.833 0-20.777-2.087-23.83-6.26-3.053-4.174-4.577-15.047-4.57-32.62 0-3.08 0-6 .14-8.58H574c-.12 2.72-.18 5.56-.18 8.58 0 21.24 2.72 35.026 8.16 41.36 5.44 6.333 17.293 9.51 35.56 9.53 18.267 0 30.127-3.177 35.58-9.53 5.453-6.354 8.173-20.14 8.16-41.36 0-3 0-5.86-.16-8.58h-15.27c.15 2.66.15 5.44.15 8.58Zm-52.37-32.64c3.053-4.16 10.997-6.247 23.83-6.26 12.833-.014 20.833 2.073 24 6.26 2 2.76 3.4 8.48 4 17.11h15.13c-1.02-12.56-3.523-21.174-7.51-25.84-5.44-6.327-17.3-9.497-35.58-9.51-18.28-.014-30.113 3.156-35.5 9.51-4 4.666-6.52 13.283-7.56 25.85h15.13c.69-8.63 2.05-14.36 4.1-17.12h-.04Zm81.21 24.05h14.49v58h-14.46l-.03-58Zm38.7-31.14c11.033 0 16.543 5.07 16.53 15.21 0 .9-.1 2.66-.3 5.26l-.44 3.72h14.27l.24-8c0-18.76-9.107-28.134-27.32-28.12-13.167 0-22.613 4.666-28.34 14l-.3-.3 1.48-11.41h-14.47v34h14.75c1.46-16.27 9.36-24.35 23.93-24.35l-.03-.01ZM832 473c-5.44-6.327-17.293-9.497-35.56-9.51-18.267-.014-30.107 3.156-35.52 9.51-4 4.666-6.527 13.283-7.58 25.85h15.15c.68-8.62 2-14.35 4-17.11 3.08-4.16 11.03-6.247 23.85-6.26 12.82-.014 20.82 2.073 24 6.26 3.053 4.173 4.587 15.053 4.6 32.64.013 17.586-1.517 28.46-4.59 32.62-3.067 4.173-11.067 6.26-24 6.26s-20.887-2.087-23.86-6.26c-3.053-4.16-4.587-15.034-4.6-32.62 0-3.08 0-6 .14-8.58h-15.18c-.1 2.72-.16 5.56-.16 8.58 0 21.24 2.72 35.026 8.16 41.36 5.44 6.333 17.267 9.51 35.48 9.53 18.267 0 30.12-3.177 35.56-9.53 5.44-6.354 8.167-20.14 8.18-41.36.007-21.234-2.683-35.027-8.07-41.38Z"/>
   </g>
   <defs>
      <clipPath id="a">
         <path fill="#fff" d="M0 0h1024v1024H0z"/>
      </clipPath>
   </defs>
</svg>

<svg width="1024" height="1024" viewBox="0 0 1024 1024" fill="none" xmlns="http://www.w3.org/2000/svg">
<g clip-path="url(#clip0_2_3975)">
<path d="M512 1024C794.77 1024 1024 794.77 1024 512C1024 229.23 794.77 0 512 0C229.23 0 0 229.23 0 512C0 794.77 229.23 1024 512 1024Z" fill="#728DBE"/>
<path d="M235 511.47L270.9 563.8H253.64L227.47 523.8L201.2 563.8H183.92L219.82 512.09L187.6 464.92H205L227.43 500.92M231.63 494.4L249.9 464.9H267.17L239.29 505.2M289.16 505.76C289.16 503.54 289.16 501.5 289.34 499.54V498.82C289.9 490.06 291.56 484.11 294.34 481.09C297.82 477.33 305.423 475.45 317.15 475.45C328.877 475.45 336.46 477.056 339.9 480.27C343.16 483.27 344.9 489.46 345.12 498.82H359.69C358.797 485.813 356.083 476.956 351.55 472.25C345.883 466.383 333.957 463.456 315.77 463.47C299.103 463.47 287.897 466.846 282.15 473.6C276.403 480.353 273.57 493.593 273.65 513.32C273.65 534.653 276.497 548.653 282.19 555.32C287.883 561.986 299.823 565.32 318.01 565.32C333.657 565.32 344.603 563.266 350.85 559.16C357.097 555.053 360.22 547.863 360.22 537.59L360.12 533.99H345.33V537.09C345.33 543.843 343.59 548.24 340.11 550.28C336.63 552.32 329.06 553.3 317.4 553.22C305.14 553.22 297.337 551.086 293.99 546.82C290.643 542.553 288.977 532.62 288.99 517.02H360.15V505.73H289.15L289.16 505.76ZM421.61 475.45C430.84 475.45 437.08 476.93 440.32 479.85C443.56 482.77 445.18 488.49 445.18 496.98V498.82H459.75C459.75 485.11 457.19 475.82 452.27 470.9C447.35 465.98 437.7 463.46 423.57 463.46C406.043 463.46 395.077 468.53 390.67 478.67L390.25 478.35L390.67 464.9H376.67V498.82H391.5C393.27 483.21 403.3 475.47 421.61 475.47V475.45ZM376.61 505.77H391.1V563.77H376.6L376.61 505.77ZM445.19 505.77H459.68V563.77H445.18L445.19 505.77ZM496.14 485.4V436.07H566.78V422.64H480.2V498.84H562.69C563.045 494.314 563.754 489.824 564.81 485.41L496.14 485.4ZM480.19 505.77H496.12V563.77H480.18L480.19 505.77ZM646 514.37C646 531.936 644.467 542.81 641.4 546.99C638.333 551.17 630.333 553.256 617.4 553.25C604.567 553.25 596.623 551.163 593.57 546.99C590.517 542.816 588.993 531.943 589 514.37C589 511.29 589 508.37 589.14 505.79H574C573.88 508.51 573.82 511.35 573.82 514.37C573.82 535.61 576.54 549.396 581.98 555.73C587.42 562.063 599.273 565.24 617.54 565.26C635.807 565.26 647.667 562.083 653.12 555.73C658.573 549.376 661.293 535.59 661.28 514.37C661.28 511.37 661.28 508.51 661.12 505.79H645.85C646 508.45 646 511.23 646 514.37ZM593.63 481.73C596.683 477.57 604.627 475.483 617.46 475.47C630.293 475.456 638.293 477.543 641.46 481.73C643.46 484.49 644.86 490.21 645.46 498.84H660.59C659.57 486.28 657.067 477.666 653.08 473C647.64 466.673 635.78 463.503 617.5 463.49C599.22 463.476 587.387 466.646 582 473C578 477.666 575.48 486.283 574.44 498.85H589.57C590.26 490.22 591.62 484.49 593.67 481.73H593.63ZM674.84 505.78H689.33V563.78H674.87L674.84 505.78ZM713.54 474.64C724.573 474.64 730.083 479.71 730.07 489.85C730.07 490.75 729.97 492.51 729.77 495.11L729.33 498.83H743.6L743.84 490.83C743.84 472.07 734.733 462.696 716.52 462.71C703.353 462.71 693.907 467.376 688.18 476.71L687.88 476.41L689.36 465H674.89V499H689.64C691.1 482.73 699 474.65 713.57 474.65L713.54 474.64ZM832 473C826.56 466.673 814.707 463.503 796.44 463.49C778.173 463.476 766.333 466.646 760.92 473C756.92 477.666 754.393 486.283 753.34 498.85H768.49C769.17 490.23 770.49 484.5 772.49 481.74C775.57 477.58 783.52 475.493 796.34 475.48C809.16 475.466 817.16 477.553 820.34 481.74C823.393 485.913 824.927 496.793 824.94 514.38C824.953 531.966 823.423 542.84 820.35 547C817.283 551.173 809.283 553.26 796.35 553.26C783.417 553.26 775.463 551.173 772.49 547C769.437 542.84 767.903 531.966 767.89 514.38C767.89 511.3 767.89 508.38 768.03 505.8H752.85C752.75 508.52 752.69 511.36 752.69 514.38C752.69 535.62 755.41 549.406 760.85 555.74C766.29 562.073 778.117 565.25 796.33 565.27C814.597 565.27 826.45 562.093 831.89 555.74C837.33 549.386 840.057 535.6 840.07 514.38C840.077 493.146 837.387 479.353 832 473Z" fill="white"/>
</g>
<defs>
<clipPath id="clip0_2_3975">
<rect width="1024" height="1024" fill="white"/>
</clipPath>
</defs>
</svg>
